X: 24171
T: Lord Balgownie's Favourite
R: strathspey
M: 4/4
K: Aminor
E|A2 A>B AG E2|c2 ~c>e {e}d>c B<G|A<A e2 A>G EC|D<D E>^G AA, A,:|
|:B,|C2 TC>E {E}D>C B,D|~C>B, A,C B,E [^G,2E2]|c2 Tce {e}d>c Bd|c>A (c/B/)A/G/ (EA)A:|
|:B|c<c g2 TB>c d2|{Bd}c>B Ac Be e2|E2 {G}FE/D/ (EA)(Bd)|c>A (c/B/)A/G/ (EA)A:|

